X: 188
P: Longways for as many as will
M: 3/4
L: 1/8
K: D
|:\
|:\
ec/d/ ec Ae | fd/e/ fd Bb | ^ge a2 a2 | a3 ^g a2 |\
aa/g/ fafd | ff/e/ dfdA | d>e f>e g>f | e4 d2 :|

